!!!COM: Anonymous
!!!OTL: Mon cueur a demy se depart
!!!AGN: Song; Chanson; Rondeau
!!!SCT: Ano3115
!!!SCA: Ano3115
!!!SMS: Dijon Chansonnier
!!!folio: 43v-44r
!!!SMS2: Lab
!!!SMS3: Niv
!!!SMS4: F176
!!!voices: 3
**kern	**kern	**kern
*staff3	*staff2	*staff1
*Ivox	*Ivox	*Ivox
*I"Contra	*I"Tenor	*I"Discantus
*I'C	*I'T	*I'D
*clefF4	*clefGv2	*clefG2
*k[b-]	*k[b-]	*k[b-]
*M3/1	*M3/1	*M3/1
*met(O)	*met(O)	*met(O)
=1-	=1-	=1-
0.GG	1.G	0g
.	2A	.
.	1B-	[1g
=2	=2	=2
1G	1B-	1g]
0D	2A	1.f
.	1d	.
.	2d	2d
=3	=3	=3
2AA	2.c	1.e
1C	.	.
.	4A	.
.	2c	.
1GG	2B-	2.d
.	1G	.
.	.	4c
2GG	.	2B-
=4	=4	=4
2D	2F	2A
1GG	1G	2.B-
.	.	4c
2D	2F	1d
1AA	1E	.
.	.	2c
=5	=5	=5
2BB-	1D	2d
1.GG	.	1B-
.	2G	.
.	1G	2G
1D	.	1A
.	2F#i	.
=6	=6	=6
0GG	0G	1G
.	.	1r
1G	1r	2.B-
.	.	4c
=7	=7	=7
1G	1B-	2.d
.	.	4e
2D	1B-	2f
2G	.	1g
1D	1A	.
.	.	2f
=8	=8	=8
2GG	2G	2b-
2D	2F	2.a
2E	1B-	.
.	.	4g
2G	.	1g
1D	1A	.
.	.	2f
=9	=9	=9
2GG	1G	2g
1C	.	4f
.	.	2e
.	2A	.
.	.	4d
2D	2F	1d
1AA	1E	.
.	.	2c#i
=10	=10	=10
2.BB-	2D	1d
.	2.G	.
4GG	.	.
1GG	.	2r
.	4F	.
.	2G	2.g
2D	2A	.
.	.	4f
2GG	4B-	2g
.	4A	.
=11	=11	=11
2D	2F	2a
2G	1G	2b-
2E	.	2.g
2D	2A	.
.	.	4f
2G	2B-	2g
2F	2c	2a
=12	=12	=12
0D	1.dN	0fN
.	4c	.
.	4B-	.
1D	1A	1r
=13	=13	=13
1GG	2r	1g
.	2G	.
2.G	2B-	1g
.	2c	.
4E	.	.
1D	1d	2f
.	.	[2b-
=14	=14	=14
2r	1c	2b-]
2F	.	2.a
2G	2B-	.
.	.	4g
2E	2G	1g
1D	1A	.
.	.	2f#i
=15	=15	=15
0GG	1G	2.g
.	.	4f
.	1B-	1d
1AA	[1A	2c
.	.	[2f
=16	=16	=16
2D	2A]	2f]
2E	1G	2.e
2C	.	.
.	.	4d
2D	2F	2.d
1AA	1E	.
.	.	4c#i
.	.	4c#i
.	.	4Bni
=17	=17	=17
2.BB-	0D	1d
4GG	.	.
2.BB-	.	1r
4C	.	.
1D	1r	[1f
=18	=18	=18
1r	1.d	1f]
0D	.	1f
.	4c	.
.	4B-	.
.	2.A	1f
.	4G	.
=19	=19	=19
2G	2B-	1g
2E	2c	.
0D	0d	2f
.	.	1a
.	.	4g
.	.	4f
=20	=20	=20
1r	1c	1e
0GG	2B-	2.d
.	2.d	.
.	.	4c
.	.	4B-
.	4c	4A
.	4B-	2G
.	4A	.
=21	=21	=21
2GG	1G	2r
1G	.	2d
.	2r	2e
2A	2D	2f
2G	2E	2g
2D	2F	2f
=22	=22	=22
2GG	2G	2b-
2D	2F	4a
.	.	4f
2E-	2B-	2g
2.F	2A	2.a
.	1d	.
4E-i	.	4g
2D	.	2f
=23	=23	=23
2r	2c	2e
1G	2B-	1d
.	1G	.
2E-i	.	2.g
1D	1A	.
.	.	4f#i
.	.	4f#i
.	.	4e
=24	=24	=24
0.GGl	0.Gl	0.gl
==	==	==
*-	*-	*-
!!!RDF**kern: l=long note in original notation
!!!RDF**kern: i=editorial accidental
!!!RDF**kern: N=signum congruentiae
!!!ENC: Chris Gage
!!!END: 2018/09/28
!!!EED: Jesse Rodin
!!!EEV: 2018/11/29
!!!ONB: Translated from MusicXML and edited on 2018/11/29 by Craig Sapp
!!muse2ps: C^@{COM}\n@{SMS}, @{folio}; also @{SMS2}, @{SMS3}, @{SMS4}^v95,95,150Q16
